app/images/src/socials/vk.svg

<svg width="30" height="30" viewBox="0 0 30 30" fill="none"
    xmlns="http://www.w3.org/2000/svg">
    <circle cx="15" cy="15" r="14.25" stroke="white" stroke-width="1.5"/>
    <path fill-rule="evenodd" clip-rule="evenodd" d="M15.6621 19.5284C15.6621 19.5284 15.9057 19.5018 16.0305 19.3703C16.1447 19.2497 16.1408 19.0222 16.1408 19.0222C16.1408 19.0222 16.1256 17.9599 16.6281 17.8031C17.1233 17.6488 17.7591 18.8304 18.4339 19.2847C18.9437 19.6282 19.3306 19.553 19.3306 19.553L21.1338 19.5284C21.1338 19.5284 22.0767 19.4714 21.6297 18.7435C21.5927 18.6839 21.3689 18.2049 20.2893 17.221C19.1583 16.1912 19.3101 16.3577 20.6716 14.576C21.501 13.491 21.8324 12.8286 21.7288 12.5454C21.6304 12.2745 21.0203 12.3464 21.0203 12.3464L18.9906 12.3587C18.9906 12.3587 18.84 12.3387 18.7284 12.4041C18.6195 12.4683 18.5488 12.618 18.5488 12.618C18.5488 12.618 18.2279 13.4573 17.7994 14.1716C16.8955 15.6778 16.5343 15.7576 16.3864 15.6642C16.0424 15.4458 16.1282 14.7879 16.1282 14.3206C16.1282 12.8604 16.354 12.2518 15.6891 12.0943C15.4686 12.0418 15.3062 12.0075 14.7416 12.0016C14.0173 11.9945 13.4045 12.0042 13.0572 12.1708C12.8261 12.2816 12.6479 12.5292 12.7568 12.5435C12.8908 12.561 13.1946 12.6238 13.3557 12.839C13.5637 13.1171 13.5564 13.7406 13.5564 13.7406C13.5564 13.7406 13.6759 15.4594 13.2771 15.6727C13.0038 15.8191 12.6287 15.5203 11.8225 14.1534C11.4098 13.4534 11.0982 12.6796 11.0982 12.6796C11.0982 12.6796 11.0381 12.535 10.9305 12.4573C10.8004 12.3633 10.6188 12.3341 10.6188 12.3341L8.69011 12.3464C8.69011 12.3464 8.40024 12.3542 8.29393 12.478C8.19951 12.5875 8.28667 12.815 8.28667 12.815C8.28667 12.815 9.79674 16.2832 11.5069 18.0312C13.0751 19.6334 14.8552 19.5284 14.8552 19.5284H15.6621Z" fill="white"/>
</svg>

<svg width="30" height="30" viewBox="0 0 30 30" fill="none" xmlns="http://www.w3.org/2000/svg" preserveAspectRatio="xMidYMid" data-v-9bbc42a4="" class="">
    <circle cx="15" cy="15" r="14.25" stroke="currentColor" stroke-width="1.5"></circle>
    <path fill-rule="evenodd" clip-rule="evenodd" d="M15.662 19.528s.244-.026.368-.158c.115-.12.11-.348.11-.348s-.014-1.062.488-1.219c.495-.154 1.131 1.027 1.806 1.482.51.343.897.268.897.268l1.803-.025s.943-.057.496-.784c-.037-.06-.261-.54-1.34-1.523-1.132-1.03-.98-.863.382-2.645.829-1.085 1.16-1.747 1.057-2.03-.099-.271-.709-.2-.709-.2l-2.03.013s-.15-.02-.262.045c-.109.064-.18.214-.18.214s-.32.84-.749 1.554c-.904 1.506-1.265 1.586-1.413 1.492-.344-.218-.258-.876-.258-1.343 0-1.46.226-2.07-.439-2.227-.22-.052-.383-.086-.947-.092-.725-.008-1.338.002-1.685.169-.23.11-.41.358-.3.373.134.017.438.08.599.295.208.278.2.902.2.902s.12 1.718-.279 1.932c-.273.146-.648-.153-1.454-1.52a12.6 12.6 0 01-.725-1.473s-.06-.145-.168-.223c-.13-.094-.311-.123-.311-.123l-1.929.012s-.29.008-.396.132c-.094.11-.007.337-.007.337s1.51 3.468 3.22 5.216c1.568 1.602 3.348 1.497 3.348 1.497h.807z" fill="currentColor">
</path></svg>
